asset/images/icons/icon-socials-instagram.svg

<svg width="32" height="32" viewBox="0 0 32 32" fill="none" xmlns="http://www.w3.org/2000/svg">
<rect width="32" height="32" rx="16" fill="white" fill-opacity="0.08"/>
<path d="M21.9647 13.5366C21.9573 13.032 21.864 12.5313 21.6853 12.0593C21.3727 11.2533 20.736 10.616 19.93 10.304C19.464 10.1286 18.9713 10.0346 18.4727 10.024C17.8313 9.9953 17.628 9.9873 16 9.9873C14.372 9.9873 14.1633 9.9873 13.5267 10.024C13.0287 10.0346 12.536 10.1286 12.07 10.304C11.264 10.616 10.6267 11.2533 10.3147 12.0593C10.1393 12.5253 10.0447 13.018 10.0353 13.516C10.0067 14.158 9.99799 14.3613 9.99799 15.9893C9.99799 17.6173 9.99799 17.8253 10.0353 18.4626C10.0453 18.9613 10.1393 19.4533 10.3147 19.9206C10.6273 20.726 11.264 21.3633 12.0707 21.6753C12.5347 21.8566 13.0273 21.9593 13.5273 21.9753C14.1693 22.004 14.3727 22.0126 16.0007 22.0126C17.6287 22.0126 17.8373 22.0126 18.474 21.9753C18.972 21.9653 19.4647 21.8713 19.9313 21.696C20.7373 21.3833 21.374 20.746 21.6867 19.9406C21.862 19.474 21.956 18.982 21.966 18.4826C21.9947 17.8413 22.0033 17.638 22.0033 16.0093C22.002 14.3813 22.002 14.1746 21.9647 13.5366ZM15.996 19.068C14.2933 19.068 12.914 17.6886 12.914 15.986C12.914 14.2833 14.2933 12.904 15.996 12.904C17.6973 12.904 19.078 14.2833 19.078 15.986C19.078 17.6886 17.6973 19.068 15.996 19.068ZM19.2007 13.5086C18.8027 13.5086 18.482 13.1873 18.482 12.79C18.482 12.3926 18.8027 12.0713 19.2007 12.0713C19.5973 12.0713 19.9187 12.3926 19.9187 12.79C19.9187 13.1873 19.5973 13.5086 19.2007 13.5086Z" fill="#D0BC7A"/>
<path d="M15.996 17.988C17.1017 17.988 17.998 17.0917 17.998 15.986C17.998 14.8803 17.1017 13.984 15.996 13.984C14.8903 13.984 13.994 14.8803 13.994 15.986C13.994 17.0917 14.8903 17.988 15.996 17.988Z" fill="#D0BC7A"/>
<rect x="0.5" y="0.5" width="31" height="31" rx="15.5" stroke="white" stroke-opacity="0.16"/>
</svg>

<svg width="32" height="32" viewBox="0 0 32 32" fill="none" xmlns="http://www.w3.org/2000/svg"><rect width="32" height="32" rx="16" fill="#fff" fill-opacity=".08"/><path d="M21.965 13.537a4.354 4.354 0 00-.28-1.478 3.073 3.073 0 00-1.755-1.755 4.401 4.401 0 00-1.457-.28c-.642-.029-.845-.037-2.473-.037s-1.837 0-2.473.037a4.4 4.4 0 00-1.457.28 3.071 3.071 0 00-1.755 1.755 4.37 4.37 0 00-.28 1.457c-.028.642-.037.845-.037 2.473s0 1.836.037 2.474c.01.498.104.99.28 1.458a3.07 3.07 0 001.756 1.754 4.39 4.39 0 001.456.3c.642.029.846.038 2.474.038 1.628 0 1.836 0 2.473-.038a4.4 4.4 0 001.457-.279 3.077 3.077 0 001.756-1.755 4.39 4.39 0 00.279-1.458c.029-.642.037-.845.037-2.474-.001-1.628-.001-1.834-.038-2.472zm-5.969 5.531a3.081 3.081 0 11-.001-6.163 3.081 3.081 0 01.001 6.163zm3.205-5.56a.718.718 0 11-.002-1.435.718.718 0 01.002 1.436z" fill="#D0BC7A"/><path d="M15.996 17.988a2.002 2.002 0 100-4.004 2.002 2.002 0 000 4.004z" fill="#D0BC7A"/><rect x=".5" y=".5" width="31" height="31" rx="15.5" stroke="#fff" stroke-opacity=".16"/></svg>
